app/dist/common/images/sgl.svg

<svg height="18" viewBox="0 0 18 18" width="18" xmlns="http://www.w3.org/2000/svg"><path d="m0 0h18v18h-18z" fill="#f0f3fa"/><path d="m5.98 4h3.02v2h-1.7l-1.64 3 1.66 3h1.68v2h-3.02l-2.98-5zm4.71 2 1.66 3-1.66 3h2.65l1.66-3-1.66-3h-2.64z" fill="#00748d"/></svg>

<!-- by TradingView --><svg width="18" height="18" viewBox="0 0 18 18" xmlns="http://www.w3.org/2000/svg"><path fill="#F0F3FA" d="M0 0h18v18H0z"/><path d="M5.98 4H9v2H7.3L5.66 9l1.66 3H9v2H5.98L3 9l2.98-5Zm4.71 2 1.66 3-1.66 3h2.65L15 9l-1.66-3H10.7Z" fill="#00748D"/></svg>
